X: 638
T: Xiaoguafu shangfen
L: 1/16
M: 2/4
K: A
E2 c2 B2 A F [I:setbarnb 1]| 
A E2 ^DE4 | 
E2 c2 B2 A F | 
A E2 ^DE4 | 
E2 A2 B c B A | 
A2 G2 F z E C | 
B, C E2 E2 C2 | 
E2 B, CA,4 |]

@@@ Tune index: 9512
